X: 20582
Q: "Slow and with feeling."
M: 3/4
L: 1/8
K: G
(GD) |\
c3dc2 | B3AG2 | A2A2A2 | A3Bd2 |\
g3fe2 | (ed)(cB)(AG) | G3 (ABG) | G2E2 |]


